build/images/icons/advantages-2.svg

<svg width="40" height="40" viewBox="0 0 40 40" fill="none" xmlns="http://www.w3.org/2000/svg">
<g clip-path="url(#clip0)">
<path d="M38.125 24.9612L38.1245 14.368C38.1219 14.0777 37.959 13.8124 37.7002 13.6797L19.4189 4.30464C19.1952 4.18979 18.9297 4.18979 18.706 4.30464L13.7122 6.86552C13.3283 7.0624 13.1767 7.53326 13.3736 7.91717C13.5704 8.30108 14.0411 8.45273 14.4252 8.25585L19.0625 5.87778L34.1081 13.5936H21.2718C20.9493 12.6843 20.081 12.0311 19.0625 12.0311C17.7701 12.0311 16.7187 13.0825 16.7187 14.3749C16.7187 15.6672 17.7701 16.7187 19.0625 16.7187C20.0809 16.7187 20.9493 16.0655 21.2718 15.1562H34.1081L19.0625 22.872L2.49338 14.375L8.16875 11.4645C8.55274 11.2676 8.7043 10.7967 8.50743 10.4128C8.31055 10.0288 7.83969 9.87727 7.45578 10.0741L0.42477 13.6798C0.163986 13.8135 0 14.0819 0 14.375C0 14.668 0.163986 14.9365 0.42477 15.0701L6.79038 18.3345V25.0537C6.79038 25.937 7.27866 26.7361 8.06461 27.1392L17.9931 32.2308C18.3279 32.4025 18.6953 32.4883 19.0625 32.4883C19.4298 32.4883 19.7972 32.4024 20.132 32.2307L30.0604 27.1392C30.8465 26.7361 31.3347 25.937 31.3347 25.0537V18.3345L36.5625 15.6536V24.9612C35.478 25.2957 34.6875 26.3073 34.6875 27.5001V35.0002C34.6875 35.4317 35.0373 35.7814 35.4688 35.7814H39.2188C39.6503 35.7814 40.0001 35.4317 40.0001 35.0002V27.5001C40 26.3072 39.2095 25.2956 38.125 24.9612ZM19.0625 15.1562C18.6317 15.1562 18.2813 14.8058 18.2813 14.375C18.2813 13.9442 18.6317 13.5937 19.0625 13.5937C19.4933 13.5937 19.8438 13.9442 19.8438 14.375C19.8438 14.8058 19.4933 15.1562 19.0625 15.1562ZM29.7722 25.0537C29.7722 25.3481 29.6094 25.6145 29.3474 25.7488L19.419 30.8404C19.1958 30.9549 18.9292 30.9548 18.706 30.8404L8.77759 25.7488C8.51555 25.6145 8.35282 25.3481 8.35282 25.0537V19.1359L18.706 24.4452C18.8178 24.5026 18.9402 24.5313 19.0625 24.5313C19.1847 24.5313 19.3071 24.5026 19.4189 24.4452L29.7721 19.1359V25.0537H29.7722ZM38.4375 34.2189H36.25V27.5001C36.25 26.897 36.7406 26.4063 37.3437 26.4063C37.9469 26.4063 38.4375 26.897 38.4375 27.5001V34.2189Z" fill="#EAC57E"/>
<path d="M10.9404 9.94604C11.1459 9.94604 11.3475 9.86323 11.4928 9.71792C11.6381 9.57183 11.7217 9.37104 11.7217 9.16479C11.7217 8.95933 11.6381 8.75776 11.4928 8.61245C11.3475 8.46714 11.1459 8.38354 10.9404 8.38354C10.735 8.38354 10.5334 8.46714 10.3881 8.61245C10.2428 8.75776 10.1592 8.95933 10.1592 9.16479C10.1592 9.37104 10.2428 9.57183 10.3881 9.71792C10.5333 9.86323 10.7349 9.94604 10.9404 9.94604Z" fill="#EAC57E"/>
</g>
<defs>
<clipPath id="clip0">
<rect width="40" height="40" fill="white"/>
</clipPath>
</defs>
</svg>

<svg width="40" height="40" fill="none" xmlns="http://www.w3.org/2000/svg"><g clip-path="url(#clip0)" fill="#EAC57E"><path d="M38.125 24.961V14.368a.78.78 0 00-.425-.688L19.42 4.305a.78.78 0 00-.713 0l-4.994 2.56a.781.781 0 00.713 1.39l4.637-2.377 15.046 7.716H21.272a2.347 2.347 0 00-2.21-1.563 2.346 2.346 0 00-2.343 2.344 2.346 2.346 0 002.343 2.344 2.347 2.347 0 002.21-1.563h12.836l-15.045 7.716-16.57-8.497 5.676-2.91a.781.781 0 00-.713-1.39L.425 13.68a.781.781 0 000 1.39l6.365 3.264v6.72c0 .883.489 1.682 1.275 2.085l9.928 5.092a2.344 2.344 0 002.139 0l9.928-5.092a2.334 2.334 0 001.275-2.085v-6.72l5.227-2.68v9.307a2.661 2.661 0 00-1.874 2.54V35c0 .43.35.78.78.78h3.75c.432 0 .782-.35.782-.78v-7.5c0-1.194-.79-2.205-1.875-2.54zm-19.063-9.805a.782.782 0 11.002-1.564.782.782 0 01-.002 1.564zm10.71 9.898c0 .294-.163.56-.425.695L19.42 30.84a.783.783 0 01-.713 0L8.778 25.75a.778.778 0 01-.425-.695v-5.918l10.353 5.31a.78.78 0 00.713 0l10.353-5.31v5.918zm8.666 9.165H36.25V27.5a1.095 1.095 0 012.188 0v6.719z"/><path d="M10.94 9.946a.786.786 0 00.553-.228.789.789 0 00.229-.553.787.787 0 00-.23-.553.787.787 0 00-.552-.228.787.787 0 00-.552.228.787.787 0 00-.229.553.786.786 0 00.781.781z"/></g><defs><clipPath id="clip0"><path fill="#fff" d="M0 0h40v40H0z"/></clipPath></defs></svg>
